src/16/apps/document-print-preview.svg

<?xml version="1.0" encoding="UTF-8" standalone="no"?>
<svg
   xmlns:dc="http://purl.org/dc/elements/1.1/"
   xmlns:cc="http://creativecommons.org/ns#"
   xmlns:rdf="http://www.w3.org/1999/02/22-rdf-syntax-ns#"
   xmlns:svg="http://www.w3.org/2000/svg"
   xmlns="http://www.w3.org/2000/svg"
   xmlns:xlink="http://www.w3.org/1999/xlink"
   xmlns:sodipodi="http://sodipodi.sourceforge.net/DTD/sodipodi-0.dtd"
   xmlns:inkscape="http://www.inkscape.org/namespaces/inkscape"
   width="16"
   height="16"
   viewBox="0 0 16 16"
   version="1.1"
   id="svg104"
   sodipodi:docname="document-print-preview.svg"
   inkscape:version="0.92.4 (5da689c313, 2019-01-14)">
  <metadata
     id="metadata108">
    <rdf:RDF>
      <cc:Work
         rdf:about="">
        <dc:format>image/svg+xml</dc:format>
        <dc:type
           rdf:resource="http://purl.org/dc/dcmitype/StillImage" />
        <dc:title>gparted</dc:title>
      </cc:Work>
    </rdf:RDF>
  </metadata>
  <sodipodi:namedview
     pagecolor="#ffffff"
     bordercolor="#666666"
     borderopacity="1"
     objecttolerance="10"
     gridtolerance="10"
     guidetolerance="10"
     inkscape:pageopacity="0"
     inkscape:pageshadow="2"
     inkscape:window-width="1366"
     inkscape:window-height="737"
     id="namedview106"
     showgrid="true"
     inkscape:zoom="3.6875001"
     inkscape:cx="21.356143"
     inkscape:cy="59.640793"
     inkscape:window-x="0"
     inkscape:window-y="31"
     inkscape:window-maximized="1"
     inkscape:current-layer="svg104"
     inkscape:object-paths="false"
     inkscape:snap-bbox="true"
     inkscape:bbox-nodes="true"
     inkscape:snap-intersection-paths="false"
     inkscape:snap-smooth-nodes="false"
     inkscape:snap-bbox-midpoints="false"
     inkscape:snap-bbox-edge-midpoints="true"
     inkscape:snap-midpoints="false"
     showguides="true"
     inkscape:guide-bbox="true"
     inkscape:object-nodes="false">
    <inkscape:grid
       type="xygrid"
       id="grid873" />
    <sodipodi:guide
       position="40,21"
       orientation="0,1"
       id="guide1165"
       inkscape:locked="false" />
    <sodipodi:guide
       position="40,21"
       orientation="1,0"
       id="guide1167"
       inkscape:locked="false" />
  </sodipodi:namedview>
  <!-- Generator: Sketch 46.2 (44496) - http://www.bohemiancoding.com/sketch -->
  <title
     id="title2">gparted</title>
  <desc
     id="desc4">Created with Sketch.</desc>
  <defs
     id="defs18">
    <linearGradient
       x1="5"
       y1="0"
       x2="5"
       y2="10"
       id="linearGradient-1"
       gradientUnits="userSpaceOnUse">
      <stop
         stop-color="#020300"
         offset="0%"
         id="stop6" />
      <stop
         stop-color="#000200"
         offset="100%"
         id="stop8" />
    </linearGradient>
    <path
       d="M 5,10 C 2.2385,10 0,7.761194 0,4.999875 0,2.238806 2.2385,0 5,0 7.7615,0 10,2.238806 10,4.999875 10,7.761194 7.7615,10 5,10 Z"
       id="path-2"
       inkscape:connector-curvature="0" />
    <path
       d="M 2.4288998,9.2891349 C 1.6034718,8.7932504 0.93297511,8.0658358 0.50721949,7.1967424 L 9.4860487,2.7894787 C 9.153226,2.1153603 8.6729184,1.5270548 8.0872608,1.0667226 Z"
       id="path-4"
       inkscape:connector-curvature="0" />
    <linearGradient
       x1="5"
       y1="6"
       x2="5"
       y2="4"
       id="linearGradient-6"
       gradientUnits="userSpaceOnUse"
       gradientTransform="translate(-8.322034,28.644068)">
      <stop
         stop-color="#E2E096"
         offset="0%"
         id="stop13" />
      <stop
         stop-color="#F9F8D2"
         offset="100%"
         id="stop15" />
    </linearGradient>
    <mask
       fill="white"
       id="mask-3">
      <use
         height="100%"
         width="100%"
         y="0"
         x="0"
         id="use53"
         xlink:href="#path-2" />
    </mask>
    <mask
       fill="white"
       id="mask-5">
      <use
         height="100%"
         width="100%"
         y="0"
         x="0"
         id="use57"
         xlink:href="#path-4" />
    </mask>
    <linearGradient
       xlink:href="#b"
       id="s"
       x1="163"
       y1="146.121"
       x2="163"
       y2="179.80299"
       gradientUnits="userSpaceOnUse"
       gradientTransform="matrix(0.67003,0,0,0.7191,-26.678,-38.36)" />
    <linearGradient
       id="b">
      <stop
         offset="0"
         stop-color="#fff"
         id="stop78" />
      <stop
         offset="1"
         stop-color="#dadada"
         id="stop80" />
    </linearGradient>
    <linearGradient
       xlink:href="#c"
       id="t"
       x1="186.244"
       y1="149"
       x2="186.244"
       y2="159.94299"
       gradientUnits="userSpaceOnUse"
       gradientTransform="matrix(0.43918,0,0,0.44583,-29.376,-44.143)" />
    <linearGradient
       id="c">
      <stop
         offset="0"
         stop-color="#80e493"
         id="stop73" />
      <stop
         offset="1"
         stop-color="#4bd865"
         id="stop75" />
    </linearGradient>
    <linearGradient
       xlink:href="#o"
       id="u"
       x1="195"
       y1="140"
       x2="195"
       y2="147.80299"
       gradientUnits="userSpaceOnUse"
       gradientTransform="matrix(0.67003,0,0,0.67003,-75.615,-72.235)" />
    <linearGradient
       id="o">
      <stop
         offset="0"
         id="stop23" />
      <stop
         offset="1"
         stop-opacity="0"
         id="stop25" />
    </linearGradient>
    <linearGradient
       xlink:href="#a"
       id="v"
       gradientUnits="userSpaceOnUse"
       gradientTransform="matrix(0.41608,0,0,0.41608,41.535,17.746)"
       x1="17.92"
       y1="19.84"
       x2="17.92"
       y2="11.307" />
    <linearGradient
       id="a">
      <stop
         offset="0"
         stop-color="#dadada"
         id="stop97" />
      <stop
         offset="1"
         stop-color="#fff"
         id="stop99" />
    </linearGradient>
    <linearGradient
       gradientTransform="matrix(0.67003,0,0,0.67003,-75.615,-73.575)"
       xlink:href="#m"
       id="w"
       x1="160.584"
       y1="120.75"
       x2="160.584"
       y2="137.129"
       gradientUnits="userSpaceOnUse" />
    <linearGradient
       id="m">
      <stop
         offset="0"
         stop-color="#374359"
         id="stop33" />
      <stop
         offset="1"
         stop-color="#202733"
         stop-opacity=".953"
         id="stop35" />
    </linearGradient>
    <linearGradient
       gradientTransform="matrix(1.25091,0,0,1.25091,1.506,3.56)"
       xlink:href="#e"
       id="x"
       x1="23.75"
       y1="11.188"
       x2="23.75"
       y2="2.875"
       gradientUnits="userSpaceOnUse" />
    <linearGradient
       id="e">
      <stop
         offset="0"
         stop-color="#bababa"
         stop-opacity=".957"
         id="stop83" />
      <stop
         offset=".17"
         stop-color="#fff"
         stop-opacity=".827"
         id="stop85" />
      <stop
         offset="1"
         stop-color="#fff"
         id="stop87" />
    </linearGradient>
    <linearGradient
       xlink:href="#i"
       id="y"
       gradientUnits="userSpaceOnUse"
       x1="160"
       y1="168"
       x2="160"
       y2="171"
       gradientTransform="matrix(0.67003,0,0,0.67003,-80.975,-74.915)" />
    <linearGradient
       id="i">
      <stop
         offset="0"
         stop-opacity=".417"
         id="stop53" />
      <stop
         offset="1"
         stop-opacity="0"
         id="stop55" />
    </linearGradient>
    <linearGradient
       xlink:href="#k"
       id="z"
       x1="128"
       y1="141.741"
       x2="128"
       y2="146.399"
       gradientUnits="userSpaceOnUse"
       gradientTransform="matrix(0.67003,0,0,0.67003,-75.615,-70.895)" />
    <linearGradient
       id="k">
      <stop
         offset="0"
         stop-opacity=".214"
         id="stop43" />
      <stop
         offset="1"
         stop-color="#fff"
         id="stop45" />
    </linearGradient>
    <linearGradient
       gradientTransform="matrix(0.63634897,0,0,0.63634897,-69.815076,-67.673905)"
       xlink:href="#l"
       id="A"
       x1="164.78999"
       y1="170.33701"
       x2="164.78999"
       y2="181.80901"
       gradientUnits="userSpaceOnUse" />
    <linearGradient
       id="l">
      <stop
         offset="0"
         stop-color="#252525"
         id="stop38" />
      <stop
         offset="1"
         stop-color="#3d3d3d"
         id="stop40" />
    </linearGradient>
    <linearGradient
       xlink:href="#f"
       id="B"
       x1="-23.834999"
       y1="47.252998"
       x2="-23.834999"
       y2="57.710999"
       gradientUnits="userSpaceOnUse"
       gradientTransform="matrix(1.66778,0,0,1.6647,72.696,-36.882)" />
    <linearGradient
       id="f">
      <stop
         offset="0"
         stop-color="#c3c3c3"
         id="stop90" />
      <stop
         offset=".252"
         stop-color="#fff"
         id="stop92" />
      <stop
         offset="1"
         stop-color="#fff"
         id="stop94" />
    </linearGradient>
    <linearGradient
       xlink:href="#n"
       id="C"
       gradientUnits="userSpaceOnUse"
       gradientTransform="matrix(-0.43918,0,0,0.44583,132.756,-36.103)"
       x1="186.244"
       y1="149"
       x2="186.244"
       y2="159.94299" />
    <linearGradient
       id="n">
      <stop
         offset="0"
         stop-color="#c6c6c6"
         id="stop28" />
      <stop
         offset="1"
         stop-color="#d2d2d2"
         id="stop30" />
    </linearGradient>
    <linearGradient
       xlink:href="#p"
       id="D"
       x1="193"
       y1="150.033"
       x2="193"
       y2="158"
       gradientUnits="userSpaceOnUse"
       gradientTransform="matrix(0.67003,0,0,0.67003,-75.615,-70.895)" />
    <linearGradient
       id="p">
      <stop
         offset="0"
         stop-opacity=".203"
         id="stop18" />
      <stop
         offset="1"
         stop-opacity="0"
         id="stop20" />
    </linearGradient>
    <linearGradient
       xlink:href="#a"
       id="E"
       gradientUnits="userSpaceOnUse"
       gradientTransform="matrix(-0.41608,0,0,0.41608,61.846,25.786)"
       x1="17.92"
       y1="19.84"
       x2="17.92"
       y2="11.307" />
  </defs>
  <g
     id="g905"
     transform="matrix(0.28571428,0,0,0.27148633,-1.142857,-0.68756253)"
     style="stroke-width:3.59054232">
    <g
       transform="matrix(0.94973206,0,0,0.94973206,8.1721724,5.5266937)"
       id="阴影"
       style="fill:none;fill-rule:evenodd;stroke:none;stroke-width:3.59054232" />
    <path
       inkscape:connector-curvature="0"
       style="color:#000000;overflow:visible;isolation:auto;mix-blend-mode:normal;fill:#333333;fill-opacity:1;stroke-width:3.41005325"
       d="m 19.273591,8.8612036 v 6.8219244 l -2.545282,0.0047 v 3.847365 H 47.272641 V 15.687866 H 44.727359 V 8.7966108 Z"
       overflow="visible"
       id="path127" />
    <path
       inkscape:connector-curvature="0"
       d="M 20.546232,8.1603008 H 43.454718 V 19.535242 H 20.547181 Z"
       style="color:#000000;overflow:visible;isolation:auto;mix-blend-mode:normal;fill:#ffffff;fill-opacity:1;stroke:#000000;stroke-width:3.41005325;stroke-linecap:round;stroke-linejoin:round;stroke-opacity:0.05882353;paint-order:markers stroke fill"
       overflow="visible"
       id="path129" />
    <path
       inkscape:connector-curvature="0"
       d="m 15.455668,40.505326 h 33.800964 l 5.016484,6.999525 H 10.365104 Z"
       style="color:#000000;overflow:visible;isolation:auto;mix-blend-mode:normal;fill:url(#A);stroke-width:3.41005325"
       overflow="visible"
       id="path137" />
    <path
       inkscape:connector-curvature="0"
       d="m 17.364629,41.141646 h 29.271692 l 8.037582,14.698053 H 9.9643173 Z"
       style="color:#000000;overflow:visible;isolation:auto;mix-blend-mode:normal;fill:#ffffff;fill-opacity:1;stroke:#828282;stroke-width:3.41005325;stroke-linecap:round;stroke-linejoin:round;stroke-miterlimit:4;stroke-dasharray:none;stroke-opacity:0.05882353;paint-order:markers stroke fill"
       overflow="visible"
       id="path139" />
    <path
       inkscape:connector-curvature="0"
       d="M 4.0009491,20.171563 4.6372696,19.535242 H 59.36368 l 0.636321,0.636321 V 44.323248 L 59.36368,44.959569 H 54.909437 L 49.818873,39.232685 H 14.182077 L 9.0867639,44.959569 H 4.6363199 L 3.9999994,44.323248 Z"
       style="color:#000000;display:block;overflow:visible;isolation:auto;mix-blend-mode:normal;fill:#4d4d4d;stroke-width:3.41005325;marker:none;paint-order:fill markers stroke"
       display="block"
       overflow="visible"
       id="path119" />
    <path
       sodipodi:nodetypes="ssccs"
       inkscape:connector-curvature="0"
       d="m 15.455668,37.960044 h 33.089614 c 0.742691,0 1.272641,0.52995 1.272641,1.272641 H 14.183027 c 0,-0.742691 0.52995,-1.272641 1.272641,-1.272641 z"
       style="color:#000000;display:block;overflow:visible;isolation:auto;mix-blend-mode:normal;fill:#000000;fill-opacity:0.41700003;stroke-width:3.41005325;marker:none;paint-order:fill markers stroke"
       display="block"
       overflow="visible"
       id="path133" />
    <circle
       style="opacity:1;fill:#666666;fill-opacity:1;stroke:none;stroke-width:3.5905416;stroke-miterlimit:4;stroke-dasharray:none;stroke-opacity:0.03821656;paint-order:stroke markers fill"
       id="circle893"
       cx="32"
       cy="35"
       r="14" />
    <circle
       r="12"
       cy="35"
       cx="32"
       id="circle822"
       style="opacity:1;fill:#ffffff;fill-opacity:1;stroke:none;stroke-width:3.07760739;stroke-miterlimit:4;stroke-dasharray:none;stroke-opacity:0.03821656;paint-order:stroke markers fill" />
    <circle
       style="opacity:1;fill:#45474f;fill-opacity:1;stroke:none;stroke-width:2.56467295;stroke-miterlimit:4;stroke-dasharray:none;stroke-opacity:0.03821656;paint-order:stroke markers fill"
       id="circle824"
       cx="32"
       cy="35"
       r="10" />
    <circle
       r="1.9999999"
       cy="31"
       cx="36.779663"
       id="circle845"
       style="opacity:0.5;fill:#ffffff;fill-opacity:1;stroke:none;stroke-width:0.51293451;stroke-miterlimit:4;stroke-dasharray:none;stroke-opacity:0.03821656;paint-order:stroke markers fill" />
  </g>
</svg>

<svg xmlns="http://www.w3.org/2000/svg" xmlns:xlink="http://www.w3.org/1999/xlink" width="16" height="16"><defs><path d="M5 10A5 5 0 1 1 5 0a5 5 0 0 1 0 10z" id="a"/><path d="M2.429 9.29A5.023 5.023 0 0 1 .507 7.196l8.979-4.408a5.02 5.02 0 0 0-1.399-1.722z" id="b"/><linearGradient id="c"><stop offset="0" stop-color="#fff"/><stop offset="1" stop-color="#dadada"/></linearGradient><linearGradient id="d"><stop offset="0" stop-color="#80e493"/><stop offset="1" stop-color="#4bd865"/></linearGradient><linearGradient id="e"><stop offset="0"/><stop offset="1" stop-opacity="0"/></linearGradient><linearGradient id="f"><stop offset="0" stop-color="#dadada"/><stop offset="1" stop-color="#fff"/></linearGradient><linearGradient id="g"><stop offset="0" stop-color="#374359"/><stop offset="1" stop-color="#202733" stop-opacity=".953"/></linearGradient><linearGradient id="h"><stop offset="0" stop-color="#bababa" stop-opacity=".957"/><stop offset=".17" stop-color="#fff" stop-opacity=".827"/><stop offset="1" stop-color="#fff"/></linearGradient><linearGradient id="i"><stop offset="0" stop-opacity=".417"/><stop offset="1" stop-opacity="0"/></linearGradient><linearGradient id="j"><stop offset="0" stop-opacity=".214"/><stop offset="1" stop-color="#fff"/></linearGradient><linearGradient gradientTransform="matrix(.63635 0 0 .63635 -69.815 -67.674)" xlink:href="#k" id="o" x1="164.79" y1="170.337" x2="164.79" y2="181.809" gradientUnits="userSpaceOnUse"/><linearGradient id="k"><stop offset="0" stop-color="#252525"/><stop offset="1" stop-color="#3d3d3d"/></linearGradient><linearGradient id="l"><stop offset="0" stop-color="#c3c3c3"/><stop offset=".252" stop-color="#fff"/><stop offset="1" stop-color="#fff"/></linearGradient><linearGradient id="m"><stop offset="0" stop-color="#c6c6c6"/><stop offset="1" stop-color="#d2d2d2"/></linearGradient><linearGradient id="n"><stop offset="0" stop-opacity=".203"/><stop offset="1" stop-opacity="0"/></linearGradient></defs><g transform="matrix(.28571 0 0 .27149 -1.143 -.688)" stroke-width="3.591"><path style="isolation:auto;mix-blend-mode:normal" d="M19.274 8.861v6.822l-2.546.005v3.847h30.545v-3.847h-2.546V8.797z" overflow="visible" color="#000" fill="#333"/><path d="M20.546 8.16h22.909v11.375H20.547z" style="isolation:auto;mix-blend-mode:normal" overflow="visible" color="#000" fill="#fff" stroke="#000" stroke-width="3.41" stroke-linecap="round" stroke-linejoin="round" stroke-opacity=".059" paint-order="markers stroke fill"/><path d="M15.456 40.505h33.8l5.017 7H10.365z" style="isolation:auto;mix-blend-mode:normal" overflow="visible" color="#000" fill="url(#o)"/><path d="M17.365 41.142h29.271l8.038 14.698H9.964z" style="isolation:auto;mix-blend-mode:normal" overflow="visible" color="#000" fill="#fff" stroke="#828282" stroke-width="3.41" stroke-linecap="round" stroke-linejoin="round" stroke-opacity=".059" paint-order="markers stroke fill"/><path d="M4 20.172l.637-.637h54.727l.636.637v24.151l-.636.637h-4.455l-5.09-5.727H14.182L9.087 44.96h-4.45L4 44.323z" style="isolation:auto;mix-blend-mode:normal;marker:none" display="block" overflow="visible" color="#000" fill="#4d4d4d" paint-order="fill markers stroke"/><path d="M15.456 37.96h33.09c.742 0 1.272.53 1.272 1.273H14.183c0-.743.53-1.273 1.273-1.273z" style="isolation:auto;mix-blend-mode:normal;marker:none" display="block" overflow="visible" color="#000" fill-opacity=".417" paint-order="fill markers stroke"/><circle cx="32" cy="35" r="14" fill="#666" paint-order="stroke markers fill"/><circle r="12" cy="35" cx="32" fill="#fff" paint-order="stroke markers fill"/><circle cx="32" cy="35" r="10" fill="#45474f" paint-order="stroke markers fill"/><circle r="2" cy="31" cx="36.78" opacity=".5" fill="#fff" paint-order="stroke markers fill"/></g></svg>
